; generated by PrusaSlicer 2.9.2 on 2025-07-26 at 17:07:34 UTC

; 

; external perimeters extrusion width = 0.45mm
; perimeters extrusion width = 0.45mm
; infill extrusion width = 0.45mm
; solid infill extrusion width = 0.45mm
; top infill extrusion width = 0.42mm
; support material extrusion width = 0.40mm
; first layer extrusion width = 0.50mm

M73 P0 R24
M73 Q0 S27
M201 X10000 Y10000 Z400 E5000 ; sets maximum accelerations, mm/sec^2
M203 X350 Y350 Z12 E100 ; sets maximum feedrates, mm / sec
M204 P7000 R2500 T7000 ; sets acceleration (P, T) and retract acceleration (R), mm/sec^2
M205 X10.00 Y10.00 Z2.00 E10.00 ; sets the jerk limits, mm/sec
M205 S0 T0 ; sets the minimum extruding and travel feed rate, mm/sec

M486 S0
M486 Acat.obj
M486 S-1

;TYPE:Custom
M17 ; enable steppers
M862.1 P0.4 A0 F1 ; nozzle check
M862.3 P "COREONE" ; printer model check
M862.5 P2 ; g-code level check
M862.6 P"Input shaper" ; FW feature check
M115 U6.3.3+10442

M555 X111.019 Y72.2131 W32 H71.772

G90 ; use absolute coordinates
M83 ; extruder relative mode


M140 S80 ; set bed temp


M109 R170 ; wait for temp

M84 E ; turn off E motor

G28 ; home all without mesh bed level


M141 S20 ; set nominal chamber temp



G0 Z40 F10000
M104 T0 S170
M190 R80 ; wait for bed temp
M107

G29 G ; absorb heat

M109 R170 ; wait for MBL temp

M302 S155 ; lower cold extrusion limit to 155C


G1 E-2 F2400 ; retraction


M84 E ; turn off E motor

G29 P9 X208 Y-2.5 W32 H4

;
; MBL
;
M84 E ; turn off E motor
G29 P1 ; invalidate mbl & probe print area
G29 P1 X150 Y0 W100 H20 C ; probe near purge place
G29 P3.2 ; interpolate mbl probes
G29 P3.13 ; extrapolate mbl outside probe area
G29 A ; activate mbl

; prepare for purge
M104 S240
G0 X249 Y-2.5 Z15 F4800 ; move away and ready for the purge
M109 S240

G92 E0
M569 S0 E ; set spreadcycle mode for extruder

;
; Extrude purge line
;
G92 E0 ; reset extruder position
G1 E2 F2400 ; deretraction after the initial one
G0 E5 X235 Z0.2 F500 ; purge
G0 X225 E4 F500 ; purge
G0 X215 E4 F650 ; purge
G0 X205 E4 F800 ; purge
G0 X202 Z0.05 F8000 ; wipe, move close to the bed
G0 X199 Z0.2 F8000 ; wipe, move quickly away from the bed

G92 E0
M221 S100 ; set flow to 100%
G21 ; set units to millimeters
G90 ; use absolute coordinates
M83 ; use relative distances for extrusion
M572 S0.036 ; Filament gcode

M142 S36 ; set heatbreak target temp
M107 ; disable fan
;LAYER_CHANGE
;Z:0.2
;HEIGHT:0.2
G1 E-.7 F2700 ; retract
G1 Z.8 F720 ; lift
G1 X114.208 Y108.203 F21000 ; move to first layer point
G1 Z.2 F720 ; move to first layer point
G1 E.7 F1500 ;  ; unretract
M204 P500 ; adjust acceleration
;TYPE:Skirt/Brim
;WIDTH:0.5
G1 F2700
G3 X119.294 Y105.579 I6.298 J5.967 E.22166 ; brim
G3 X121.882 Y105.402 I1.879 J8.425 E.09896 ; brim
G1 X124.002 Y105.921 E.08295 ; brim
G1 X125.01 Y106.369 E.04192 ; brim
G3 X130.708 Y105.574 I3.944 J7.449 E.22314 ; brim
G3 X136.328 Y108.858 I-1.122 J8.369 E.25396 ; brim
G3 X137.831 Y111.061 I-6.556 J6.091 E.10174 ; brim
G1 X138.364 Y112.775 E.06822 ; brim
G3 X137.747 Y117.838 I-8.829 J1.493 E.19657 ; brim
G1 X136.81 Y119.374 E.06838 ; brim
G1 X135.653 Y120.567 E.06316 ; brim
G3 X133.372 Y121.873 I-5.975 J-7.79 E.1002 ; brim
G2 X131.76 Y122.542 I1.67 J6.306 E.06653 ; brim
G3 X124.996 Y121.779 I-2.554 J-7.722 E.26692 ; brim
G3 X123.412 Y122.542 I-5.046 J-8.448 E.06691 ; brim
G1 X121.507 Y122.94 E.07397 ; brim
G1 X119.658 Y122.881 E.07031 ; brim
G3 X117.061 Y121.984 I1.505 J-8.56 E.10486 ; brim
G3 X112.214 Y117.757 I2.205 J-7.421 E.25207 ; brim
G3 X111.633 Y112.82 I8.261 J-3.476 E.19144 ; brim
G1 X112.139 Y111.142 E.06661 ; brim
G3 X113.656 Y108.846 I8.387 J3.89 E.10498 ; brim
G3 X114.166 Y108.247 I6.85 J5.324 E.02991 ; brim
M204 P3000 ; adjust acceleration
M204 T7000 ; adjust acceleration
G1 X114.5 Y108.559 F21000 ; move to first brim point
M204 P500 ; adjust acceleration
G1 F2700
G3 X119.379 Y106.029 I6.007 J5.615 E.21298 ; brim
G1 X120.616 Y105.841 E.04755 ; brim
G1 X121.849 Y105.858 E.04687 ; brim
G1 X123.871 Y106.359 E.07917 ; brim
G3 X124.997 Y106.92 I-2.179 J5.787 E.0479 ; brim
M73 P1 R24
G3 X130.626 Y106.024 I3.954 J6.707 E.22179 ; brim
G3 X135.973 Y109.147 I-1.034 J7.908 E.2417 ; brim
G3 X137.403 Y111.223 I-6.125 J5.751 E.09617 ; brim
G1 X137.92 Y112.886 E.06619 ; brim
G3 X137.324 Y117.664 I-8.347 J1.384 E.18557 ; brim
G1 X136.435 Y119.112 E.06458 ; brim
G3 X133.206 Y121.447 I-6.097 J-5.031 E.1531 ; brim
G2 X131.584 Y122.119 I1.639 J6.25 E.06693 ; brim
G3 X126.551 Y122.046 I-2.407 J-7.608 E.19463 ; brim
G1 X124.977 Y121.258 E.0669 ; brim
G3 X123.251 Y122.113 I-5.166 J-8.256 E.07333 ; brim
G1 X121.495 Y122.483 E.0682 ; brim
G1 X119.699 Y122.425 E.06829 ; brim
G3 X117.23 Y121.557 I1.453 J-8.079 E.09989 ; brim
G3 X112.199 Y116.358 I2.073 J-7.04 E.28753 ; brim
G1 X111.949 Y114.597 E.0676 ; brim
G3 X113.371 Y109.883 I8.235 J-.087 E.19004 ; brim
M73 Q1 S27
G1 X113.997 Y109.151 E.03661 ; brim
G3 X114.459 Y108.603 I6.51 J5.023 E.02725 ; brim
M204 P3000 ; adjust acceleration
G1 X114.796 Y108.916 F21000 ; move to first brim point
M204 P500 ; adjust acceleration
G1 F2700
G3 X118.766 Y106.586 I5.869 J5.454 E.17745 ; brim
G3 X121.815 Y106.315 I2.529 J11.146 E.11669 ; brim
G3 X124.49 Y107.137 I-1.836 J10.734 E.10665 ; brim
G1 X125.004 Y107.472 E.02332 ; brim
G3 X130.544 Y106.475 I3.94 J6.001 E.21984 ; brim
G3 X135.617 Y109.434 I-.945 J7.446 E.22933 ; brim
G3 X136.995 Y111.43 I-5.73 J5.431 E.09255 ; brim
G3 X137.405 Y116.048 I-7.376 J2.982 E.1788 ; brim
G3 X135.036 Y119.891 I-7.355 J-1.882 E.17421 ; brim
G3 X133.04 Y121.021 I-5.164 J-6.796 E.08744 ; brim
G2 X131.454 Y121.68 I1.483 J5.807 E.0655 ; brim
G3 X126.736 Y121.627 I-2.279 J-7.148 E.18242 ; brim
G3 X125.027 Y120.696 I3.704 J-8.831 E.07409 ; brim
G3 X121.482 Y122.025 I-4.517 J-6.657 E.14525 ; brim
G1 X119.74 Y121.969 E.06624 ; brim
G3 X117.399 Y121.131 I1.406 J-7.611 E.09491 ; brim
G3 X112.648 Y116.269 I1.897 J-6.607 E.27025 ; brim
G3 X112.523 Y113.032 I8.874 J-1.962 E.12378 ; brim
G3 X114.337 Y109.456 I7.29 J1.449 E.15431 ; brim
G3 X114.755 Y108.96 I6.328 J4.914 E.02466 ; brim
M204 P3000 ; adjust acceleration
G1 X115.113 Y109.273 F21000 ; move to first brim point
M204 P500 ; adjust acceleration
G1 F2700
G3 X119.549 Y106.928 I5.278 J4.614 E.19503 ; brim
G1 X120.689 Y106.752 E.04384 ; brim
G1 X121.78 Y106.771 E.04147 ; brim
G3 X124.283 Y107.545 I-1.764 J10.142 E.09985 ; brim
G1 X125.011 Y108.025 E.03314 ; brim
G3 X130.462 Y106.925 I3.928 J5.412 E.21797 ; brim
G3 X135.26 Y109.721 I-.856 J6.985 E.21696 ; brim
G3 X137.022 Y113.057 I-4.823 J4.681 E.14534 ; brim
G3 X135.714 Y118.549 I-7.025 J1.229 E.22061 ; brim
G3 X132.347 Y120.733 I-4.954 J-3.95 E.1552 ; brim
G3 X128.876 Y121.586 I-3.201 J-5.541 E.13768 ; brim
G3 X126.882 Y121.194 I.451 J-7.558 E.07747 ; brim
G3 X125.009 Y120.088 I2.54 J-6.445 E.08301 ; brim
G3 X122.97 Y121.243 I-4.247 J-5.117 E.08953 ; brim
G1 X121.466 Y121.567 E.05847 ; brim
G3 X118.464 Y121.155 I-.436 J-7.954 E.11587 ; brim
G2 X116.869 Y120.497 I-3.055 J5.149 E.06581 ; brim
G3 X113.096 Y116.178 I2.612 J-6.089 E.22541 ; brim
G3 X113.374 Y111.742 I7.3 J-1.769 E.17149 ; brim
G3 X114.839 Y109.606 I6.377 J2.803 E.09902 ; brim
G3 X115.074 Y109.318 I5.552 J4.281 E.01413 ; brim
M204 P3000 ; adjust acceleration
G1 X115.419 Y109.615 F21000 ; move to first brim point
M204 P500 ; adjust acceleration
G1 F2700
G3 X119.633 Y107.377 I4.973 J4.276 E.1856 ; brim
G3 X121.744 Y107.228 I1.517 J6.435 E.08078 ; brim
G3 X124.076 Y107.953 I-1.656 J9.435 E.09307 ; brim
G1 X125.018 Y108.579 E.04299 ; brim
G3 X130.381 Y107.376 I3.919 J4.915 E.21619 ; brim
G3 X134.903 Y110.008 I-.768 J6.521 E.20453 ; brim
G3 X133.435 Y119.854 I-4.479 J4.364 E.43757 ; brim
G3 X132.185 Y120.303 I-2.403 J-4.724 E.05061 ; brim
G3 X125.001 Y119.486 I-3.046 J-5.206 E.29467 ; brim
G3 X122.849 Y120.802 I-4.225 J-4.493 E.09655 ; brim
G3 X118.606 Y120.719 I-1.999 J-6.31 E.16419 ; brim
G2 X117.058 Y120.081 I-2.84 J4.686 E.06388 ; brim
G3 X113.544 Y116.086 I2.412 J-5.665 E.2091 ; brim
G3 X113.787 Y111.94 I6.824 J-1.68 E.16024 ; brim
G3 X115.172 Y109.921 I5.906 J2.566 E.09362 ; brim
G3 X115.38 Y109.661 I5.22 J3.97 E.01266 ; brim
M204 P3000 ; adjust acceleration
G1 X115.728 Y109.955 F21000 ; move to first brim point
M204 P500 ; adjust acceleration
G1 F2700
G3 X119.718 Y107.827 I4.667 J3.944 E.17605 ; brim
G1 X120.732 Y107.665 E.03903 ; brim
G1 X121.709 Y107.684 E.03714 ; brim
G3 X123.839 Y108.344 I-1.613 J8.973 E.08496 ; brim
G3 X124.973 Y109.173 I-3.02 J5.324 E.05351 ; brim
G3 X130.069 Y107.768 I4.002 J4.568 E.20786 ; brim
G3 X134.467 Y110.184 I-.643 J6.383 E.19594 ; brim
G3 X134.179 Y118.82 I-4.136 J4.185 E.3688 ; brim
G3 X132.024 Y119.872 I-3.344 J-4.118 E.09194 ; brim
G3 X127.217 Y120.343 I-2.902 J-4.855 E.18966 ; brim
G3 X124.995 Y118.882 I2.708 J-6.54 E.10167 ; brim
G3 X121.43 Y120.652 I-4.275 J-4.133 E.15425 ; brim
G3 X118.748 Y120.284 I-.426 J-6.852 E.10357 ; brim
G2 X117.247 Y119.664 I-2.637 J4.254 E.062 ; brim
G3 X113.993 Y115.993 I2.212 J-5.239 E.19277 ; brim
G3 X114.219 Y112.093 I6.336 J-1.589 E.15078 ; brim
G3 X115.505 Y110.235 I5.374 J2.347 E.08642 ; brim
G3 X115.69 Y110.001 I4.89 J3.664 E.01134 ; brim
M204 P3000 ; adjust acceleration
G1 X116.04 Y110.292 F21000 ; move to first brim point
M204 P500 ; adjust acceleration
G1 F2700
G3 X119.802 Y108.277 I4.358 J3.617 E.1663 ; brim
G3 X121.673 Y108.141 I1.334 J5.412 E.07164 ; brim
G3 X123.602 Y108.736 I-1.581 J8.551 E.0769 ; brim
G3 X124.995 Y109.84 I-2.836 J5.006 E.06783 ; brim
G3 X130.219 Y108.279 I3.933 J3.642 E.21739 ; brim
G3 X134.189 Y110.581 I-.589 J5.59 E.17966 ; brim
G3 X135.642 Y115.554 I-3.789 J3.806 E.20548 ; brim
G3 X132.383 Y119.313 I-5.089 J-1.12 E.19712 ; brim
G2 X130.927 Y119.926 I.946 J4.283 E.06037 ; brim
G3 X127.402 Y119.924 I-1.761 J-5.297 E.13631 ; brim
G3 X125.003 Y118.144 I1.936 J-5.115 E.11499 ; brim
G3 X118.074 Y119.421 I-4.166 J-3.168 E.29376 ; brim
G3 X114.441 Y115.9 I1.206 J-4.878 E.2015 ; brim
G3 X114.65 Y112.248 I5.849 J-1.498 E.14124 ; brim
G3 X115.838 Y110.55 I4.841 J2.125 E.07927 ; brim
G3 X116.002 Y110.338 I4.56 J3.359 E.01019 ; brim
M204 P3000 ; adjust acceleration
G1 X116.334 Y110.64 F21000 ; move to first brim point
M204 P500 ; adjust acceleration
G1 F2700
G3 X117.478 Y109.585 I6.621 J6.034 E.05922 ; brim
G3 X119.886 Y108.727 I2.954 J4.48 E.0981 ; brim
G1 X120.778 Y108.579 E.03437 ; brim
G3 X123.395 Y109.144 I.142 J5.682 E.10272 ; brim
G3 X125.004 Y110.497 I-3.435 J5.714 E.08023 ; brim
G3 X130.138 Y108.731 I3.93 J3.08 E.21816 ; brim
G3 X133.831 Y110.867 I-.499 J5.122 E.16719 ; brim
G3 X135.191 Y115.475 I-3.43 J3.518 E.19079 ; brim
G3 X132.221 Y118.885 I-4.623 J-1.029 E.17917 ; brim
G2 X130.792 Y119.488 I.833 J3.969 E.05931 ; brim
G3 X125.003 Y117.365 I-1.6 J-4.592 E.25384 ; brim
G3 X118.242 Y118.993 I-4.166 J-2.45 E.29499 ; brim
M73 P1 R23
G3 X114.877 Y115.761 I1.037 J-4.447 E.18612 ; brim
G3 X115.594 Y111.492 I5.044 J-1.348 E.16964 ; brim
G1 X116.023 Y111 E.02481 ; brim
G3 X116.293 Y110.685 I6.932 J5.674 E.01577 ; brim
M204 P3000 ; adjust acceleration
G1 X116.633 Y110.991 F21000 ; move to first brim point
M204 P500 ; adjust acceleration
G1 F2700
G3 X117.72 Y109.974 I6.493 J5.849 E.05664 ; brim
G3 X119.971 Y109.177 I2.712 J4.085 E.09168 ; brim
G3 X121.596 Y109.053 I1.154 J4.434 E.06227 ; brim
G3 X123.187 Y109.551 I-1.451 J7.43 E.06349 ; brim
G3 X125.011 Y111.411 I-2.413 J4.19 E.10025 ; brim
G3 X130.059 Y109.183 I3.9 J2.005 E.22681 ; brim
G3 X133.472 Y111.153 I-.41 J4.653 E.15461 ; brim
G3 X132.637 Y118.207 I-3.048 J3.216 E.31321 ; brim
G3 X131.537 Y118.578 I-1.789 J-3.488 E.04428 ; brim
G3 X126.779 Y118.597 I-2.394 J-3.597 E.19151 ; brim
G3 X125.032 Y116.194 I2.32 J-3.524 E.11539 ; brim
G3 X123.363 Y118.5 I-4.754 J-1.683 E.10968 ; brim
G3 X118.41 Y118.564 I-2.524 J-3.624 E.19986 ; brim
G3 X115.313 Y115.623 I.869 J-4.016 E.17069 ; brim
G3 X115.955 Y111.773 I4.59 J-1.214 E.15288 ; brim
G1 X116.357 Y111.312 E.02325 ; brim
G3 X116.593 Y111.035 I6.769 J5.528 E.01383 ; brim
M204 P3000 ; adjust acceleration
G1 X116.967 Y111.32 F21000 ; move to first brim point
M204 P500 ; adjust acceleration
G1 F2700
G3 X120.055 Y109.627 I3.443 J2.618 E.13785 ; brim
G1 X120.853 Y109.49 E.03077 ; brim
G3 X123.545 Y110.334 I.172 J4.17 E.10938 ; brim
G3 X124.561 Y111.564 I-3.007 J3.519 E.06094 ; brim
G1 X125.033 Y112.683 E.04616 ; brim
G3 X129.98 Y109.636 I3.883 J.765 E.24795 ; brim
G3 X133.21 Y111.535 I-.391 J4.362 E.14715 ; brim
G3 X132.439 Y117.795 I-2.784 J2.834 E.27692 ; brim
G3 X131.374 Y118.146 I-1.652 J-3.22 E.04279 ; brim
G3 X125.764 Y116.85 I-2.219 J-3.186 E.24653 ; brim
G3 X125.313 Y114.953 I3.556 J-1.848 E.07486 ; brim
G1 X125.009 Y114.213 E.03041 ; brim
G2 X124.665 Y115.562 I1.811 J1.181 E.05387 ; brim
G3 X118.578 Y118.135 I-3.845 J-.61 E.29995 ; brim
G3 X115.75 Y115.486 I.704 J-3.587 E.15522 ; brim
G3 X116.926 Y111.375 I3.99 J-1.082 E.1708 ; brim
G3 X116.931 Y111.368 I3.484 J2.563 E.00033 ; brim
M204 P3000 ; adjust acceleration
G1 E-.7 ; retract
G1 X125.495 Y112.825 Z.352 F21000 ; move to first brim point
M73 Q1 S26
G1 Z.2 F720 ; move to first brim point
G1 E.7 F1500 ;  ; unretract
M204 P500 ; adjust acceleration
G1 F2700
G3 X129.639 Y110.014 I3.42 J.582 E.2126 ; brim
G1 X129.902 Y110.089 E.01039 ; brim
G3 X132.788 Y111.78 I-.23 J3.702 E.13189 ; brim
G3 X133.609 Y115.897 I-2.368 J2.612 E.1709 ; brim
G3 X131.211 Y117.713 I-2.859 J-1.284 E.11924 ; brim
G3 X126.176 Y116.646 I-2.045 J-2.764 E.22103 ; brim
G3 X125.76 Y115.125 I3.596 J-1.801 E.06032 ; brim
G2 X125.665 Y114.623 I-.59 J-.149 E.02004 ; brim
G3 X125.485 Y112.884 I3.25 J-1.216 E.06717 ; brim
M204 P3000 ; adjust acceleration
G1 X125.94 Y112.951 F21000 ; move to first brim point
M204 P500 ; adjust acceleration
G1 F2700
G3 X129.212 Y110.407 I2.964 J.437 E.17395 ; brim
G2 X130.127 Y110.558 I1.493 J-6.21 E.03528 ; brim
G3 X132.443 Y112.093 I-.512 J3.287 E.10894 ; brim
G3 X132.013 Y116.986 I-1.985 J2.291 E.21764 ; brim
G3 X131.049 Y117.279 I-1.364 J-2.749 E.03847 ; brim
G3 X128.224 Y117.792 I-1.91 J-2.483 E.11336 ; brim
G3 X126.249 Y114.776 I.92 J-2.758 E.1478 ; brim
M73 P2 R23
G3 X125.932 Y113.011 I2.655 J-1.388 E.06921 ; brim
M204 P3000 ; adjust acceleration
G1 X126.381 Y113.07 F21000 ; move to first brim point
M204 P500 ; adjust acceleration
G1 F2700
G3 X129.462 Y110.911 I2.53 J.333 E.16076 ; brim
G2 X130.048 Y111.009 I.516 J-1.283 E.02276 ; brim
G3 X132.1 Y112.411 I-.425 J2.824 E.09772 ; brim
G3 X133.025 Y114.452 I-1.42 J1.873 E.08877 ; brim
G3 X130.825 Y116.857 I-2.391 J.022 E.1363 ; brim
G3 X126.675 Y115.083 I-1.651 J-1.879 E.21386 ; brim
G2 X126.525 Y114.31 I-.808 J-.245 E.03113 ; brim
G3 X126.373 Y113.129 I2.386 J-.907 E.04568 ; brim
M204 P3000 ; adjust acceleration
G1 X126.826 Y113.179 F21000 ; move to first brim point
M204 P500 ; adjust acceleration
G1 F2700
G3 X129.112 Y111.317 I2.086 J.227 E.12425 ; brim
G2 X130.352 Y111.544 I4.986 J-23.734 E.04792 ; brim
G3 X131.758 Y112.733 I-.742 J2.304 E.07179 ; brim
G3 X132.568 Y114.421 I-1.036 J1.535 E.0746 ; brim
G3 X130.647 Y116.385 I-1.888 J.075 E.11691 ; brim
G3 X127.194 Y114.61 I-1.478 J-1.372 E.19877 ; brim
G3 X126.82 Y113.238 I1.718 J-1.204 E.05514 ; brim
M204 P3000 ; adjust acceleration
G1 X127.278 Y113.273 F21000 ; move to first brim point
M204 P500 ; adjust acceleration
G1 F2700
G3 X129.252 Y111.801 I1.627 J.122 E.10605 ; brim
G2 X129.906 Y111.913 I.548 J-1.23 E.02548 ; brim
G3 X131.375 Y113.032 I-.231 J1.827 E.07352 ; brim
G3 X132.111 Y114.392 I-.645 J1.229 E.06234 ; brim
G3 X130.453 Y115.919 I-1.442 J.097 E.09823 ; brim
G3 X127.679 Y114.471 I-1.279 J-.931 E.171 ; brim
G3 X127.275 Y113.333 I1.226 J-1.076 E.04701 ; brim
M204 P3000 ; adjust acceleration
G1 X127.73 Y113.35 F21000 ; move to first brim point
M204 P500 ; adjust acceleration
G1 F2700
G3 X129.028 Y112.229 I1.172 J.044 E.07311 ; brim
G2 X129.839 Y112.366 I.778 J-2.126 E.03143 ; brim
G3 X130.991 Y113.336 I-.142 J1.338 E.06075 ; brim
G3 X131.654 Y114.364 I-.331 J.941 E.05004 ; brim
G3 X130.598 Y115.466 I-.973 J.125 E.06648 ; brim
G1 X130.222 Y115.35 E.01495 ; brim
G3 X128.251 Y114.37 I-1.056 J-.348 E.14495 ; brim
