; generated by PrusaSlicer 2.9.2 on 2025-07-26 at 17:06:46 UTC

; 

; external perimeters extrusion width = 0.45mm
; perimeters extrusion width = 0.45mm
; infill extrusion width = 0.45mm
; solid infill extrusion width = 0.45mm
; top infill extrusion width = 0.42mm
; support material extrusion width = 0.40mm
; first layer extrusion width = 0.50mm

M73 P0 R0
M73 Q0 S0
M201 X10000 Y10000 Z400 E5000 ; sets maximum accelerations, mm/sec^2
M203 X350 Y350 Z12 E100 ; sets maximum feedrates, mm / sec
M204 P7000 R2500 T7000 ; sets acceleration (P, T) and retract acceleration (R), mm/sec^2
M205 X10.00 Y10.00 Z2.00 E10.00 ; sets the jerk limits, mm/sec
M205 S0 T0 ; sets the minimum extruding and travel feed rate, mm/sec

M486 S0
M486 Aeyeball.stl
M486 S-1

;TYPE:Custom
M17 ; enable steppers
M862.1 P0.4 A0 F1 ; nozzle check
M862.3 P "COREONE" ; printer model check
M862.5 P2 ; g-code level check
M862.6 P"Input shaper" ; FW feature check
M115 U6.3.3+10442

M555 X116.284 Y97.29 W32 H21.4358

G90 ; use absolute coordinates
M83 ; extruder relative mode


M140 S80 ; set bed temp


M109 R170 ; wait for temp

M84 E ; turn off E motor

G28 ; home all without mesh bed level


M141 S20 ; set nominal chamber temp



G0 Z40 F10000
M104 T0 S170
M190 R80 ; wait for bed temp
M107

G29 G ; absorb heat

M109 R170 ; wait for MBL temp

M302 S155 ; lower cold extrusion limit to 155C


G1 E-2 F2400 ; retraction
M73 P7 R0
M73 Q6 S0


M84 E ; turn off E motor

G29 P9 X208 Y-2.5 W32 H4

;
; MBL
;
M84 E ; turn off E motor
G29 P1 ; invalidate mbl & probe print area
G29 P1 X150 Y0 W100 H20 C ; probe near purge place
G29 P3.2 ; interpolate mbl probes
G29 P3.13 ; extrapolate mbl outside probe area
G29 A ; activate mbl

; prepare for purge
M104 S240
G0 X249 Y-2.5 Z15 F4800 ; move away and ready for the purge
M73 Q7 S0
M109 S240

G92 E0
M569 S0 E ; set spreadcycle mode for extruder

;
; Extrude purge line
;
G92 E0 ; reset extruder position
G1 E2 F2400 ; deretraction after the initial one
M73 P14 R0
M73 Q13 S0
G0 E5 X235 Z0.2 F500 ; purge
G0 X225 E4 F500 ; purge
M73 P19 R0
M73 Q18 S0
G0 X215 E4 F650 ; purge
M73 P22 R0
M73 Q21 S0
G0 X205 E4 F800 ; purge
M73 P24 R0
M73 Q23 S0
G0 X202 Z0.05 F8000 ; wipe, move close to the bed
M73 P25 R0
M73 Q24 S0
G0 X199 Z0.2 F8000 ; wipe, move quickly away from the bed

G92 E0
M221 S100 ; set flow to 100%
G21 ; set units to millimeters
G90 ; use absolute coordinates
M83 ; use relative distances for extrusion
M572 S0.036 ; Filament gcode

M142 S36 ; set heatbreak target temp
M107 ; disable fan
;LAYER_CHANGE
;Z:0.2
;HEIGHT:0.2
G1 E-.7 F2700 ; retract
G1 Z.8 F720 ; lift
G1 X118.767 Y104.669 F21000 ; move to first layer point
M73 P26 R0
M73 Q25 S0
G1 Z.2 F720 ; move to first layer point
M73 P27 R0
M73 Q26 S0
G1 E.7 F1500 ;  ; unretract
M204 P500 ; adjust acceleration
;TYPE:Skirt/Brim
;WIDTH:0.5
G1 F2700
G1 X119.452 Y103.892 E.03937 ; brim
G1 X120.837 Y102.877 E.06526 ; brim
G1 X122.438 Y102.158 E.0667 ; brim
M73 Q27 S0
G1 X124.118 Y101.797 E.06531 ; brim
G3 X127.421 Y102.114 I.713 J9.942 E.1267 ; brim
G3 X132.876 Y107.537 I-2.571 J8.042 E.30353 ; brim
M73 P28 R0
G3 X132.51 Y113.428 I-8.22 J2.447 E.22901 ; brim
G3 X127.833 Y117.761 I-7.724 J-3.647 E.24833 ; brim
M73 Q28 S0
G1 X126.112 Y118.187 E.06738 ; brim
G1 X124.149 Y118.227 E.07462 ; brim
G3 X117.792 Y114.028 I.985 J-8.403 E.30036 ; brim
M73 P29 R0
G3 X117.441 Y106.695 I7.424 J-4.03 E.28864 ; brim
M73 Q29 S0
G1 X118.254 Y105.251 E.06298 ; brim
G1 X118.727 Y104.714 E.0272 ; brim
M204 P3000 ; adjust acceleration
M204 T7000 ; adjust acceleration
G1 X119.047 Y104.992 F21000 ; move to first brim point
M204 P500 ; adjust acceleration
G1 F2700
G3 X122.558 Y102.599 I6.309 J5.485 E.16328 ; brim
M73 P30 R0
G1 X124.189 Y102.25 E.06339 ; brim
G3 X128.671 Y103.125 I.691 J8.375 E.17577 ; brim
G3 X131.362 Y114.513 I-3.74 J6.896 E.50193 ; brim
M73 P31 R0
M73 Q30 S0
G3 X127.699 Y117.324 I-6.677 J-4.91 E.17784 ; brim
G1 X126.076 Y117.731 E.06359 ; brim
G1 X124.214 Y117.774 E.07079 ; brim
G3 X117.263 Y110.964 I.871 J-7.842 E.39853 ; brim
M73 Q31 S0
G3 X118.614 Y105.534 I8.03 J-.886 E.21716 ; brim
M73 P32 R0
G3 X119.008 Y105.037 I6.742 J4.943 E.02411 ; brim
M204 P3000 ; adjust acceleration
G1 X119.367 Y105.338 F21000 ; move to first brim point
M204 P500 ; adjust acceleration
G1 F2700
G3 X122.68 Y103.04 I5.846 J4.894 E.15508 ; brim
G3 X127.153 Y102.988 I2.325 J7.552 E.17237 ; brim
M73 Q32 S0
G3 X131.002 Y114.232 I-2.203 J7.035 E.52534 ; brim
M73 P33 R0
G3 X127.563 Y116.887 I-6.298 J-4.603 E.16734 ; brim
M73 Q33 S0
G1 X126.038 Y117.275 E.05981 ; brim
G1 X124.278 Y117.32 E.06691 ; brim
G3 X118.261 Y107.101 I.777 J-7.338 E.52344 ; brim
M73 P34 R0
G3 X119.328 Y105.384 I6.952 J3.131 E.07706 ; brim
M204 P3000 ; adjust acceleration
G1 X119.668 Y105.667 F21000 ; move to first brim point
M204 P500 ; adjust acceleration
G1 F2700
M73 Q34 S0
G3 X124.286 Y103.159 I5.476 J4.577 E.20454 ; brim
G3 X130.27 Y105.577 I.648 J7.009 E.25482 ; brim
M73 P35 R0
G3 X130.64 Y113.951 I-5.369 J4.433 E.34186 ; brim
M73 Q35 S0
G3 X125.998 Y116.819 I-5.766 J-4.142 E.21286 ; brim
G3 X123.037 Y116.609 I-.914 J-8.103 E.11345 ; brim
M73 P36 R0
G3 X119.337 Y106.095 I2.014 J-6.617 E.49259 ; brim
G3 X119.629 Y105.714 I5.807 J4.149 E.01825 ; brim
M73 Q36 S0
M204 P3000 ; adjust acceleration
G1 X119.982 Y106 F21000 ; move to first brim point
M204 P500 ; adjust acceleration
G1 F2700
G3 X126.848 Y103.851 I5.057 J4.112 E.28966 ; brim
M73 P37 R0
G3 X130.278 Y113.672 I-1.892 J6.17 E.45979 ; brim
M73 Q37 S0
G3 X125.957 Y116.363 I-5.395 J-3.847 E.19857 ; brim
M73 P38 R0
G3 X123.148 Y116.165 I-.88 J-7.555 E.10765 ; brim
G3 X119.7 Y106.374 I1.901 J-6.172 E.45822 ; brim
G3 X119.944 Y106.047 I5.339 J3.738 E.01551 ; brim
M73 Q38 S0
M204 P3000 ; adjust acceleration
G1 X120.315 Y106.336 F21000 ; move to first brim point
M204 P500 ; adjust acceleration
G1 F2700
G3 X125.612 Y104.067 I4.711 J3.679 E.22853 ; brim
M73 P39 R0
G3 X125.914 Y115.907 I-.634 J5.94 E.65332 ; brim
M73 P40 R0
M73 Q39 S0
G3 X122.263 Y115.316 I-.855 J-6.288 E.14264 ; brim
G3 X120.278 Y106.384 I2.763 J-5.301 E.39604 ; brim
M204 P3000 ; adjust acceleration
G1 X120.641 Y106.662 F21000 ; move to first brim point
M204 P500 ; adjust acceleration
G1 F2700
M73 Q40 S0
G3 X126.55 Y104.716 I4.38 J3.357 E.25119 ; brim
M73 P41 R0
G3 X125.869 Y115.452 I-1.573 J5.29 E.56433 ; brim
M73 Q41 S0
G3 X121.614 Y114.361 I-.824 J-5.629 E.1714 ; brim
M73 P42 R0
G3 X120.605 Y106.71 I3.407 J-4.342 E.32479 ; brim
M204 P3000 ; adjust acceleration
G1 X120.969 Y106.983 F21000 ; move to first brim point
M204 P500 ; adjust acceleration
G1 F2700
G3 X125.485 Y104.973 I4.058 J3.039 E.19624 ; brim
G3 X125.822 Y114.996 I-.504 J5.035 E.55276 ; brim
M73 P43 R0
M73 Q42 S0
G3 X120.625 Y112.538 I-.793 J-5.047 E.23206 ; brim
G3 X120.933 Y107.031 I4.402 J-2.516 E.22165 ; brim
M73 P44 R0
M73 Q43 S0
M204 P3000 ; adjust acceleration
G1 X121.299 Y107.298 F21000 ; move to first brim point
M204 P500 ; adjust acceleration
G1 F2700
G3 X126.258 Y105.583 I3.713 J2.71 E.21224 ; brim
G3 X125.772 Y114.541 I-1.278 J4.423 E.47024 ; brim
M73 P45 R0
M73 Q44 S0
G3 X121.264 Y107.347 I-.76 J-4.533 E.41126 ; brim
M204 P3000 ; adjust acceleration
G1 X121.627 Y107.605 F21000 ; move to first brim point
M204 P500 ; adjust acceleration
G1 F2700
G3 X124.466 Y105.899 I3.371 J2.395 E.12952 ; brim
M73 P46 R0
G1 X125.366 Y105.881 E.03421 ; brim
M73 Q45 S0
G3 X121.593 Y107.654 I-.368 J4.119 E.82152 ; brim
M73 P47 R0
M73 Q46 S0
M204 P3000 ; adjust acceleration
G1 X121.97 Y107.914 F21000 ; move to first brim point
M204 P500 ; adjust acceleration
G1 F2700
G3 X125.309 Y106.335 I3.03 J2.087 E.14706 ; brim
G1 X125.975 Y106.454 E.02571 ; brim
G3 X121.936 Y107.963 I-.975 J3.547 E.70347 ; brim
M73 P48 R0
M73 Q47 S0
M204 P3000 ; adjust acceleration
G1 X122.315 Y108.215 F21000 ; move to first brim point
M204 P500 ; adjust acceleration
G1 F2700
G3 X124.586 Y106.805 I2.682 J1.787 E.10476 ; brim
G1 X125.254 Y106.789 E.0254 ; brim
G3 X122.282 Y108.265 I-.257 J3.213 E.63712 ; brim
M73 P49 R0
M73 Q48 S0
M204 P3000 ; adjust acceleration
G1 X122.669 Y108.513 F21000 ; move to first brim point
M204 P500 ; adjust acceleration
G1 F2700
G3 X125.202 Y107.244 I2.331 J1.49 E.11304 ; brim
G1 X125.703 Y107.327 E.0193 ; brim
G3 X122.637 Y108.564 I-.703 J2.676 E.5259 ; brim
M73 P50 R0
M73 Q49 S0
M204 P3000 ; adjust acceleration
G1 X123.025 Y108.8 F21000 ; move to first brim point
M204 P500 ; adjust acceleration
G1 F2700
G3 X124.668 Y107.717 I1.971 J1.203 E.07726 ; brim
G1 X125.154 Y107.699 E.01848 ; brim
G3 X122.994 Y108.852 I-.158 J2.304 E.45353 ; brim
M73 P51 R0
M73 Q50 S0
M204 P3000 ; adjust acceleration
G1 X123.394 Y109.081 F21000 ; move to first brim point
M204 P500 ; adjust acceleration
G1 F2700
G3 X125.11 Y108.154 I1.607 J.923 E.07806 ; brim
G1 X125.444 Y108.205 E.01284 ; brim
G3 X123.365 Y109.134 I-.443 J1.799 E.34938 ; brim
M73 P52 R0
M73 Q51 S0
M204 P3000 ; adjust acceleration
G1 X123.763 Y109.347 F21000 ; move to first brim point
M204 P500 ; adjust acceleration
G1 F2700
G3 X124.809 Y108.62 I1.232 J.658 E.05027 ; brim
G1 X125.067 Y108.609 E.00981 ; brim
G3 X123.736 Y109.4 I-.072 J1.396 E.27125 ; brim
M204 P3000 ; adjust acceleration
G1 X124.152 Y109.599 F21000 ; move to first brim point
M204 P500 ; adjust acceleration
G1 F2700
M73 Q52 S0
G3 X125.027 Y109.065 I.848 J.406 E.0412 ; brim
G1 X125.235 Y109.095 E.00799 ; brim
G3 X124.128 Y109.654 I-.235 J.91 E.17311 ; brim
M73 P53 R0
M204 P3000 ; adjust acceleration
M486 S0
G1 X125.039 Y109.715 F21000 ; move to first perimeter point
M204 P500 ; adjust acceleration
;TYPE:External perimeter
;WIDTH:0.614765
G1 F2700
G1 X125.22 Y109.803 E.00957 ; perimeter
G1 X125.292 Y109.954 E.00795 ; perimeter
;WIDTH:0.614952
G1 X125.257 Y110.158 E.00984 ; perimeter
G1 X125.089 Y110.3 E.01046 ; perimeter
G1 X124.866 Y110.278 E.01066 ; perimeter
G1 X124.753 Y110.168 E.0075 ; perimeter
G1 X124.707 Y109.966 E.00985 ; perimeter
G1 X124.813 Y109.782 E.0101 ; perimeter
;WIDTH:0.614765
G1 X124.983 Y109.724 E.00854 ; perimeter
M204 P3000 ; adjust acceleration
G1 X125.287 Y109.985 F21000 ; move inwards before travel
M106 S127.5 ; enable fan
;LAYER_CHANGE
;Z:0.4
;HEIGHT:0.2
;BEFORE_LAYER_CHANGE
G92 E0.0
;0.4


G1 E-.7 F2700 ; retract
G1 X125.287 Y109.985 Z.2 F21000 ; layer change
G1 X125.036 Y109.714 Z.4 F1511.605 ; layer change
;AFTER_LAYER_CHANGE
;0.4
M104 S220 ; set temperature
G1 X125.036 Y109.714 F21000 ; move to first layer point
M73 Q53 S0
G1 Z.4 F720 ; move to first layer point
G1 E.7 F1500 ;  ; unretract
M204 P6000 ; adjust acceleration
;TYPE:Perimeter
;WIDTH:0.627262
G1 F1200
G1 X125.199 Y109.781 E.00856 ; perimeter
G1 X125.289 Y109.955 E.00952 ; perimeter
G1 X125.27 Y110.156 E.00981 ; perimeter
G1 X125.06 Y110.308 E.0126 ; perimeter
G1 X124.954 Y110.299 E.00517 ; perimeter
G1 X124.767 Y110.208 E.0101 ; perimeter
G1 X124.705 Y109.954 E.0127 ; perimeter
G1 X124.821 Y109.76 E.01098 ; perimeter
G1 X124.979 Y109.711 E.00804 ; perimeter
M204 P3000 ; adjust acceleration
G1 X125.115 Y109.219 F21000 ; move to first perimeter point
;TYPE:External perimeter
;WIDTH:0.449999
G1 F1061.255
G1 X125.311 Y109.261 E.00678 ; perimeter
G1 F1065.583
G1 X125.555 Y109.423 E.00991 ; perimeter
G1 X125.747 Y109.709 E.01166 ; perimeter
G1 F1071.072
M73 P54 R0
G1 X125.803 Y110.003 E.01013 ; perimeter
G1 F1074.773
G1 X125.711 Y110.384 E.01327 ; perimeter
G1 F1073.309
G1 X125.456 Y110.673 E.01305 ; perimeter
G1 X125.105 Y110.804 E.01268 ; perimeter
G1 F1072.947
G1 X124.684 Y110.751 E.01436 ; perimeter
G1 X124.404 Y110.546 E.01175 ; perimeter
G1 F1068.783
G1 X124.213 Y110.169 E.01431 ; perimeter
G1 X124.208 Y109.867 E.01022 ; perimeter
G1 F1059.752
G1 X124.321 Y109.573 E.01066 ; perimeter
G1 X124.511 Y109.364 E.00956 ; perimeter
G1 X124.74 Y109.241 E.0088 ; perimeter
G1 X125.025 Y109.199 E.00975 ; perimeter
G1 F1061.255
G1 X125.056 Y109.206 E.00108 ; perimeter
G1 X125.428 Y109.352 F21000 ; move inwards before travel
M106 S255 ; enable fan
;LAYER_CHANGE
;Z:0.6
;HEIGHT:0.2
;BEFORE_LAYER_CHANGE
G92 E0.0
;0.6


G1 E-.7 F2700 ; retract
G1 X125.428 Y109.352 Z.4 F21000 ; layer change
M73 Q54 S0
G1 X125.095 Y109.377 Z.6 F1403.058 ; layer change
;AFTER_LAYER_CHANGE
;0.6
G1 X125.095 Y109.377 F21000 ; move to first layer point
G1 Z.6 F720 ; move to first layer point
G1 E.7 F1500 ;  ; unretract
M204 P6000 ; adjust acceleration
;TYPE:Perimeter
G1 F1200
G1 X125.251 Y109.4 E.00534 ; perimeter
G1 X125.467 Y109.546 E.00882 ; perimeter
G1 X125.591 Y109.72 E.00723 ; perimeter
G1 X125.642 Y109.988 E.00923 ; perimeter
G1 X125.635 Y110.177 E.0064 ; perimeter
G1 X125.452 Y110.482 E.01204 ; perimeter
G1 X125.239 Y110.619 E.00857 ; perimeter
G1 X125.003 Y110.665 E.00814 ; perimeter
G1 X124.769 Y110.622 E.00805 ; perimeter
G1 X124.555 Y110.489 E.00853 ; perimeter
G1 X124.406 Y110.293 E.00833 ; perimeter
M73 P55 R0
G1 X124.353 Y109.904 E.01329 ; perimeter
G1 X124.454 Y109.657 E.00903 ; perimeter
G1 X124.614 Y109.491 E.0078 ; perimeter
G1 X124.896 Y109.349 E.01069 ; perimeter
G1 X125.036 Y109.369 E.00479 ; perimeter
M204 P3000 ; adjust acceleration
G1 X125.159 Y108.98 F21000 ; move to first perimeter point
;TYPE:External perimeter
G1 F1200
G1 X125.413 Y109.018 E.00869 ; perimeter
G1 X125.756 Y109.25 E.01402 ; perimeter
G1 X125.961 Y109.537 E.01194 ; perimeter
G1 X126.055 Y109.839 E.01071 ; perimeter
G1 X126.044 Y110.137 E.01009 ; perimeter
G1 X125.963 Y110.475 E.01176 ; perimeter
G1 X125.735 Y110.784 E.013 ; perimeter
G1 X125.394 Y111.003 E.01372 ; perimeter
G1 X125.006 Y111.079 E.01338 ; perimeter
G1 X124.62 Y111.009 E.01328 ; perimeter
M73 Q55 S0
G1 X124.276 Y110.795 E.01371 ; perimeter
G1 X124.116 Y110.585 E.00894 ; perimeter
G1 X123.964 Y110.27 E.01184 ; perimeter
G1 X123.942 Y109.856 E.01403 ; perimeter
G1 X124.032 Y109.553 E.0107 ; perimeter
G1 X124.232 Y109.262 E.01195 ; perimeter
G1 X124.578 Y109.02 E.01429 ; perimeter
G1 X124.895 Y108.94 E.01107 ; perimeter
G1 X125.1 Y108.971 E.00702 ; perimeter
G1 X125.484 Y109.084 F21000 ; move inwards before travel
G1 X124.747 Y110.026 ; move to first infill point
M204 P6000 ; adjust acceleration
;TYPE:Solid infill
;WIDTH:0.533725
G1 F1200
M73 P56 R0
G1 X124.814 Y109.832 E.00838 ; infill
G1 X124.971 Y109.745 E.00733 ; infill
G1 X125.136 Y109.79 E.00698 ; infill
G3 X125.243 Y110.033 I-.256 J.258 E.01109 ; infill
G1 X125.182 Y110.194 E.00703 ; infill
G1 X125 Y110.27 E.00805 ; infill
G1 X124.838 Y110.206 E.00711 ; infill
M204 P3000 ; adjust acceleration
;LAYER_CHANGE
;Z:0.8
;HEIGHT:0.2
;BEFORE_LAYER_CHANGE
G92 E0.0
;0.8


G1 E-.7 F2700 ; retract
G1 X124.838 Y110.206 Z.6 F21000 ; layer change
G1 X125.126 Y109.191 Z.8 F3866.48 ; layer change
;AFTER_LAYER_CHANGE
;0.8
G1 X125.126 Y109.191 F21000 ; move to first layer point
G1 Z.8 F720 ; move to first layer point
G1 E.7 F1500 ;  ; unretract
M204 P6000 ; adjust acceleration
;TYPE:Perimeter
;WIDTH:0.449999
G1 F1200
G1 X125.334 Y109.224 E.00713 ; perimeter
G1 X125.572 Y109.377 E.00958 ; perimeter
G1 X125.778 Y109.669 E.0121 ; perimeter
G1 X125.847 Y109.967 E.01035 ; perimeter
G1 X125.84 Y110.121 E.00522 ; perimeter
M73 Q56 S0
G1 X125.698 Y110.492 E.01345 ; perimeter
G1 X125.508 Y110.69 E.00929 ; perimeter
G1 X125.141 Y110.843 E.01346 ; perimeter
G1 X124.857 Y110.844 E.00961 ; perimeter
G1 X124.563 Y110.737 E.01059 ; perimeter
G1 X124.262 Y110.431 E.01453 ; perimeter
G1 X124.157 Y110.129 E.01082 ; perimeter
G1 X124.174 Y109.797 E.01125 ; perimeter
G1 X124.315 Y109.5 E.01113 ; perimeter
G1 X124.616 Y109.25 E.01324 ; perimeter
G1 X124.91 Y109.157 E.01044 ; perimeter
G1 X125.067 Y109.182 E.00538 ; perimeter
M204 P3000 ; adjust acceleration
G1 X125.193 Y108.776 F21000 ; move to first perimeter point
;TYPE:External perimeter
G1 F1200
G1 X125.493 Y108.842 E.0104 ; perimeter
G1 X125.848 Y109.071 E.0143 ; perimeter
G1 X125.992 Y109.25 E.00778 ; perimeter
M73 P57 R0
G1 X126.193 Y109.599 E.01363 ; perimeter
G1 X126.253 Y109.953 E.01215 ; perimeter
G1 X126.242 Y110.185 E.00786 ; perimeter
G1 X126.113 Y110.563 E.01352 ; perimeter
G1 X125.935 Y110.84 E.01115 ; perimeter
G1 X125.643 Y111.096 E.01314 ; perimeter
