; generated by PrusaSlicer 2.9.2 on 2025-07-26 at 17:06:52 UTC

; 

; external perimeters extrusion width = 0.45mm
; perimeters extrusion width = 0.45mm
; infill extrusion width = 0.45mm
; solid infill extrusion width = 0.45mm
; top infill extrusion width = 0.42mm
; support material extrusion width = 0.40mm
; first layer extrusion width = 0.50mm

M73 P0 R9
M73 Q0 S9
M201 X10000 Y10000 Z400 E5000 ; sets maximum accelerations, mm/sec^2
M203 X350 Y350 Z12 E100 ; sets maximum feedrates, mm / sec
M204 P7000 R2500 T7000 ; sets acceleration (P, T) and retract acceleration (R), mm/sec^2
M205 X10.00 Y10.00 Z2.00 E10.00 ; sets the jerk limits, mm/sec
M205 S0 T0 ; sets the minimum extruding and travel feed rate, mm/sec

M486 S0
M486 AfemaleHead.obj
M486 S-1

;TYPE:Custom
M17 ; enable steppers
M862.1 P0.4 A0 F1 ; nozzle check
M862.3 P "COREONE" ; printer model check
M862.5 P2 ; g-code level check
M862.6 P"Input shaper" ; FW feature check
M115 U6.3.3+10442

M555 X114.927 Y96.5405 W32 H23.9417

G90 ; use absolute coordinates
M83 ; extruder relative mode


M140 S80 ; set bed temp


M109 R170 ; wait for temp

M84 E ; turn off E motor

G28 ; home all without mesh bed level


M141 S20 ; set nominal chamber temp



G0 Z40 F10000
M104 T0 S170
M190 R80 ; wait for bed temp
M107

G29 G ; absorb heat

M109 R170 ; wait for MBL temp

M302 S155 ; lower cold extrusion limit to 155C


G1 E-2 F2400 ; retraction


M84 E ; turn off E motor

G29 P9 X208 Y-2.5 W32 H4

;
; MBL
;
M84 E ; turn off E motor
G29 P1 ; invalidate mbl & probe print area
G29 P1 X150 Y0 W100 H20 C ; probe near purge place
G29 P3.2 ; interpolate mbl probes
G29 P3.13 ; extrapolate mbl outside probe area
G29 A ; activate mbl

; prepare for purge
M104 S240
G0 X249 Y-2.5 Z15 F4800 ; move away and ready for the purge
M109 S240

G92 E0
M569 S0 E ; set spreadcycle mode for extruder

;
; Extrude purge line
;
G92 E0 ; reset extruder position
G1 E2 F2400 ; deretraction after the initial one
M73 P1 R9
M73 Q1 S9
G0 E5 X235 Z0.2 F500 ; purge
G0 X225 E4 F500 ; purge
M73 P1 R8
G0 X215 E4 F650 ; purge
G0 X205 E4 F800 ; purge
M73 P2 R8
G0 X202 Z0.05 F8000 ; wipe, move close to the bed
M73 Q2 S9
G0 X199 Z0.2 F8000 ; wipe, move quickly away from the bed

G92 E0
M221 S100 ; set flow to 100%
G21 ; set units to millimeters
G90 ; use absolute coordinates
M83 ; use relative distances for extrusion
M572 S0.036 ; Filament gcode

M142 S36 ; set heatbreak target temp
M107 ; disable fan
;LAYER_CHANGE
;Z:0.2
;HEIGHT:0.2
G1 E-.7 F2700 ; retract
G1 Z.8 F720 ; lift
G1 X118.049 Y104.373 F21000 ; move to first layer point
G1 Z.2 F720 ; move to first layer point
G1 E.7 F1500 ;  ; unretract
M204 P500 ; adjust acceleration
;TYPE:Skirt/Brim
;WIDTH:0.5
G1 F2700
G1 X119.492 Y103.269 E.06905 ; brim
G3 X123.43 Y102.149 I4.468 J8.225 E.15687 ; brim
G1 X126.79 Y102.164 E.1277 ; brim
G3 X129.59 Y102.802 I-.875 J10.299 E.1095 ; brim
G1 X131.188 Y103.726 E.07016 ; brim
G3 X133.416 Y106.252 I-6.261 J7.769 E.12863 ; brim
G3 X134.145 Y108.108 I-8.34 J4.347 E.07593 ; brim
G1 X134.364 Y109.791 E.0645 ; brim
G1 X134.209 Y111.514 E.06575 ; brim
G1 X133.621 Y113.298 E.07139 ; brim
G1 X132.635 Y114.884 E.07098 ; brim
G3 X125.574 Y118.387 I-7.503 J-6.255 E.30836 ; brim
G3 X119.798 Y116.998 I-.617 J-10.136 E.22913 ; brim
G3 X117.157 Y114.612 I5.998 J-9.292 E.13586 ; brim
G3 X115.809 Y111.613 I7.855 J-5.336 E.1256 ; brim
G3 X115.806 Y108.343 I9.191 J-1.643 E.12492 ; brim
G3 X116.92 Y105.703 I8.841 J2.176 E.10936 ; brim
G1 X118.01 Y104.418 E.06404 ; brim
M204 P3000 ; adjust acceleration
M204 T7000 ; adjust acceleration
G1 X118.346 Y104.72 F21000 ; move to first brim point
M204 P500 ; adjust acceleration
G1 F2700
G1 X119.749 Y103.648 E.06711 ; brim
G3 X123.445 Y102.606 I4.199 J7.815 E.14711 ; brim
G1 X125.983 Y102.59 E.09646 ; brim
G3 X129.422 Y103.228 I-.016 J9.68 E.13367 ; brim
G1 X130.935 Y104.108 E.06652 ; brim
G3 X133.011 Y106.465 I-5.934 J7.319 E.11993 ; brim
G3 X133.703 Y108.228 I-7.799 J4.08 E.07212 ; brim
G3 X133.756 Y111.444 I-8.723 J1.751 E.12292 ; brim
G1 X133.196 Y113.127 E.06741 ; brim
G1 X132.261 Y114.62 E.06695 ; brim
G3 X125.568 Y117.93 I-7.126 J-5.988 E.292 ; brim
G3 X120.054 Y116.619 I-.611 J-9.68 E.2186 ; brim
G3 X117.539 Y114.359 I5.687 J-8.859 E.12907 ; brim
G3 X116.257 Y108.417 I6.238 J-4.455 E.23756 ; brim
G3 X117.286 Y105.977 I8.309 J2.068 E.10105 ; brim
G1 X118.308 Y104.766 E.06023 ; brim
M204 P3000 ; adjust acceleration
G1 X118.632 Y105.081 F21000 ; move to first brim point
M204 P500 ; adjust acceleration
G1 F2700
G3 X118.644 Y105.068 I5.89 J5.712 E.00067 ; brim
G3 X121.208 Y103.482 I5.519 J6.056 E.11524 ; brim
G3 X123.46 Y103.063 I3.082 J10.293 E.08722 ; brim
G1 X126.7 Y103.074 E.12314 ; brim
G3 X129.254 Y103.653 I-.759 J9.257 E.09986 ; brim
G1 X130.682 Y104.489 E.06289 ; brim
G3 X132.991 Y107.494 I-4.71 J6.009 E.14555 ; brim
G3 X133.304 Y111.374 I-6.997 J2.517 E.14969 ; brim
G1 X132.772 Y112.954 E.06336 ; brim
G3 X128.648 Y116.767 I-7.424 J-3.893 E.21768 ; brim
G3 X120.309 Y116.239 I-3.634 J-8.718 E.32896 ; brim
G3 X117.152 Y112.796 I4.345 J-7.152 E.17993 ; brim
G3 X116.985 Y107.548 I6.636 J-2.837 E.20424 ; brim
G3 X118.59 Y105.124 I7.537 J3.245 E.11108 ; brim
M204 P3000 ; adjust acceleration
G1 X118.919 Y105.439 F21000 ; move to first brim point
M204 P500 ; adjust acceleration
G1 F2700
G3 X118.944 Y105.414 I5.527 J5.299 E.00134 ; brim
G3 X121.339 Y103.92 I5.182 J5.644 E.1079 ; brim
G3 X123.475 Y103.52 I2.934 J9.743 E.08275 ; brim
M73 P3 R8
G1 X125.96 Y103.504 E.09445 ; brim
G3 X130.427 Y104.869 I.179 J7.405 E.1806 ; brim
M73 Q3 S9
G3 X132.56 Y107.648 I-4.417 J5.6 E.13452 ; brim
G3 X132.851 Y111.303 I-6.505 J2.357 E.14104 ; brim
G1 X132.348 Y112.781 E.05934 ; brim
G3 X128.456 Y116.352 I-6.989 J-3.711 E.20468 ; brim
G3 X120.563 Y115.859 I-3.443 J-8.303 E.31122 ; brim
G3 X117.579 Y112.631 I4.076 J-6.761 E.16931 ; brim
G3 X117.403 Y107.736 I6.196 J-2.674 E.19051 ; brim
G3 X118.878 Y105.483 I7.043 J3.002 E.10288 ; brim
M204 P3000 ; adjust acceleration
G1 X119.209 Y105.796 F21000 ; move to first brim point
M204 P500 ; adjust acceleration
G1 F2700
G3 X119.244 Y105.759 I5.16 J4.887 E.00194 ; brim
G3 X121.471 Y104.359 I4.847 J5.234 E.10055 ; brim
G3 X123.49 Y103.977 I2.784 J9.192 E.07825 ; brim
G1 X126.613 Y103.984 E.11869 ; brim
G3 X132.377 Y108.582 I-.237 J6.209 E.3 ; brim
G3 X131.925 Y112.605 I-6.376 J1.32 E.15645 ; brim
G3 X128.264 Y115.937 I-6.556 J-3.528 E.19179 ; brim
G3 X120.817 Y115.478 I-3.252 J-7.888 E.29349 ; brim
G3 X118.006 Y112.465 I3.809 J-6.371 E.1587 ; brim
G3 X117.82 Y107.923 I5.757 J-2.51 E.17678 ; brim
G3 X119.168 Y105.84 I6.549 J2.76 E.09478 ; brim
M204 P3000 ; adjust acceleration
G1 X119.505 Y106.173 F21000 ; move to first brim point
M204 P500 ; adjust acceleration
G1 F2700
G3 X123.505 Y104.434 I4.166 J4.109 E.16987 ; brim
G1 X125.939 Y104.418 E.09251 ; brim
G3 X129.912 Y105.627 I.198 J6.483 E.16066 ; brim
G3 X131.709 Y107.982 I-3.814 J4.773 E.11372 ; brim
G3 X131.503 Y112.427 I-5.429 J1.976 E.17361 ; brim
G3 X127.198 Y115.833 I-6.21 J-3.427 E.21422 ; brim
G3 X121.07 Y115.097 I-2.164 J-7.859 E.24057 ; brim
G3 X118.433 Y112.299 I3.537 J-5.976 E.14806 ; brim
G3 X118.239 Y108.107 I5.315 J-2.346 E.16318 ; brim
G3 X119.464 Y106.216 I5.432 J2.175 E.08617 ; brim
M204 P3000 ; adjust acceleration
G1 X119.792 Y106.533 F21000 ; move to first brim point
M204 P500 ; adjust acceleration
G1 F2700
G3 X123.521 Y104.891 I3.874 J3.742 E.15881 ; brim
G1 X126.528 Y104.894 E.11429 ; brim
G3 X131.493 Y108.818 I-.147 J5.29 E.25781 ; brim
G3 X129.679 Y114.003 I-5.229 J1.08 E.21929 ; brim
G3 X125.531 Y115.644 I-4.553 J-5.447 E.17246 ; brim
G3 X121.323 Y114.716 I-.57 J-7.421 E.16615 ; brim
G3 X118.859 Y112.132 I3.268 J-5.583 E.13748 ; brim
G3 X118.659 Y108.29 I4.875 J-2.18 E.14958 ; brim
G3 X119.75 Y106.576 I5.007 J1.985 E.07769 ; brim
M204 P3000 ; adjust acceleration
G1 X120.073 Y106.887 F21000 ; move to first brim point
M204 P500 ; adjust acceleration
G1 F2700
G3 X123.537 Y105.348 I3.624 J3.49 E.14771 ; brim
G1 X125.919 Y105.332 E.09053 ; brim
G3 X130.585 Y107.748 I.301 J5.132 E.20961 ; brim
G3 X129.398 Y113.643 I-4.167 J2.228 E.24772 ; brim
G3 X125.499 Y115.188 I-4.267 J-5.074 E.16218 ; brim
G3 X120.487 Y113.545 I-.566 J-6.739 E.20593 ; brim
G3 X119.53 Y107.557 I3.053 J-3.559 E.25062 ; brim
G3 X120.031 Y106.93 I4.167 J2.82 E.03054 ; brim
M204 P3000 ; adjust acceleration
G1 X120.364 Y107.242 F21000 ; move to first brim point
M204 P500 ; adjust acceleration
G1 F2700
G3 X123.553 Y105.805 I3.327 J3.124 E.13643 ; brim
G1 X126.446 Y105.805 E.10995 ; brim
G3 X130.609 Y109.052 I-.062 J4.371 E.21544 ; brim
G3 X129.116 Y113.282 I-4.323 J.853 E.17887 ; brim
G3 X125.467 Y114.732 I-3.98 J-4.701 E.15188 ; brim
G3 X120.776 Y113.19 I-.536 J-6.275 E.19285 ; brim
G3 X119.926 Y107.787 I2.755 J-3.202 E.2261 ; brim
M73 P4 R8
G3 X120.323 Y107.286 I3.765 J2.579 E.02431 ; brim
M204 P3000 ; adjust acceleration
G1 X120.66 Y107.595 F21000 ; move to first brim point
M204 P500 ; adjust acceleration
G1 F2700
G3 X123.593 Y106.26 I3.029 J2.766 E.12587 ; brim
G1 X125.901 Y106.246 E.08772 ; brim
G3 X129.778 Y108.178 I.311 J4.232 E.17278 ; brim
M73 Q4 S9
G3 X130.182 Y110.668 I-3.21 J1.799 E.09786 ; brim
G3 X128.834 Y112.922 I-4.095 J-.919 E.10152 ; brim
G3 X125.459 Y114.275 I-3.694 J-4.329 E.14066 ; brim
G3 X121.066 Y112.836 I-.526 J-5.819 E.18063 ; brim
G3 X120.296 Y108.056 I2.46 J-2.848 E.19989 ; brim
G3 X120.62 Y107.639 I3.393 J2.305 E.02008 ; brim
M204 P3000 ; adjust acceleration
G1 X120.962 Y107.942 F21000 ; move to first brim point
M204 P500 ; adjust acceleration
G1 F2700
G3 X123.633 Y106.715 I2.726 J2.413 E.115 ; brim
G1 X126.367 Y106.716 E.10391 ; brim
G3 X129.717 Y109.252 I.016 J3.458 E.17162 ; brim
G3 X128.552 Y112.562 I-3.404 J.662 E.13983 ; brim
G3 X125.427 Y113.819 I-3.409 J-3.962 E.13034 ; brim
G3 X121.389 Y112.511 I-.497 J-5.357 E.16583 ; brim
G3 X120.668 Y108.323 I2.135 J-2.524 E.17542 ; brim
G3 X120.923 Y107.987 I3.02 J2.032 E.01604 ; brim
M204 P3000 ; adjust acceleration
G1 X121.274 Y108.266 F21000 ; move to first brim point
M204 P500 ; adjust acceleration
G1 F2700
G3 X123.133 Y107.232 I2.178 J1.728 E.08296 ; brim
G3 X125.884 Y107.16 I1.969 J22.514 E.10466 ; brim
G3 X128.976 Y108.618 I.315 J3.338 E.13634 ; brim
G3 X129.298 Y110.428 I-2.375 J1.357 E.07126 ; brim
G3 X128.267 Y112.204 I-3.16 J-.647 E.07943 ; brim
G3 X124.416 Y113.352 I-3.241 J-3.838 E.15712 ; brim
G3 X120.917 Y111.137 I.322 J-4.378 E.1639 ; brim
G3 X121.237 Y108.313 I2.535 J-1.143 E.11338 ; brim
M204 P3000 ; adjust acceleration
G1 X121.598 Y108.589 F21000 ; move to first brim point
M204 P500 ; adjust acceleration
G1 F2700
G3 X122.734 Y107.79 I1.834 J1.4 E.05362 ; brim
G1 X123.199 Y107.685 E.01812 ; brim
G3 X126.291 Y107.627 I2.036 J26.102 E.1176 ; brim
G3 X128.818 Y109.421 I.082 J2.56 E.1265 ; brim
G3 X127.981 Y111.847 I-2.466 J.507 E.10235 ; brim
G3 X124.464 Y112.897 I-2.953 J-3.474 E.14357 ; brim
G3 X121.347 Y110.978 I.283 J-3.949 E.14462 ; brim
G3 X121.562 Y108.637 I2.085 J-.989 E.09375 ; brim
M204 P3000 ; adjust acceleration
G1 X121.934 Y108.904 F21000 ; move to first brim point
M204 P500 ; adjust acceleration
G1 F2700
G3 X123.284 Y108.134 I1.515 J1.087 E.06093 ; brim
G3 X125.87 Y108.074 I1.849 J23.956 E.09836 ; brim
G3 X127.742 Y108.572 I.232 J2.897 E.07506 ; brim
G3 X128.4 Y110.254 I-1.097 J1.399 E.072 ; brim
G3 X127.695 Y111.49 I-2.185 J-.428 E.05505 ; brim
G3 X124.511 Y112.443 I-2.664 J-3.107 E.13007 ; brim
G3 X121.755 Y110.771 I.235 J-3.495 E.12731 ; brim
G3 X121.9 Y108.953 I1.694 J-.78 E.07243 ; brim
M204 P3000 ; adjust acceleration
G1 X122.279 Y109.207 F21000 ; move to first brim point
M204 P500 ; adjust acceleration
G1 F2700
G3 X123.37 Y108.583 I1.172 J.783 E.04951 ; brim
G3 X126.236 Y108.539 I1.883 J29.567 E.10898 ; brim
G3 X127.921 Y109.604 I.117 J1.681 E.08107 ; brim
G3 X127.379 Y111.159 I-1.543 J.333 E.06584 ; brim
G3 X124.558 Y111.988 I-2.346 J-2.769 E.11506 ; brim
G3 X122.166 Y110.568 I.189 J-3.046 E.10978 ; brim
G3 X122.247 Y109.257 I1.285 J-.578 E.05193 ; brim
M204 P3000 ; adjust acceleration
G1 X122.639 Y109.495 F21000 ; move to first brim point
M204 P500 ; adjust acceleration
G1 F2700
G3 X123.435 Y109.035 I.816 J.495 E.03645 ; brim
G1 X125.856 Y108.988 E.09203 ; brim
G3 X127.122 Y109.245 I.201 J2.254 E.04979 ; brim
G3 X127.297 Y110.582 I-.525 J.749 E.05763 ; brim
G3 X125.324 Y111.536 I-2.116 J-1.86 E.08555 ; brim
G3 X122.674 Y110.539 I-.409 J-2.935 E.11219 ; brim
G3 X122.609 Y109.547 I.781 J-.549 E.03974 ; brim
M204 P3000 ; adjust acceleration
G1 X123.016 Y109.758 F21000 ; move to first brim point
M204 P500 ; adjust acceleration
G1 F2700
G3 X123.522 Y109.484 I.454 J.235 E.02323 ; brim
G1 X126.198 Y109.453 E.10171 ; brim
G3 X127.036 Y109.844 I.112 J.854 E.0371 ; brim
G3 X126.748 Y110.496 I-.652 J.101 E.02862 ; brim
G3 X124.597 Y111.074 I-1.724 J-2.125 E.08718 ; brim
G3 X123.006 Y110.209 I.183 J-2.232 E.07086 ; brim
G3 X122.992 Y109.813 I.464 J-.216 E.01546 ; brim
M204 P3000 ; adjust acceleration
G1 E-.7 ; retract
M486 S0
G1 X128.034 Y118.788 Z.38 F21000 ; move to first support material point
G1 Z.2 F720 ; move to first support material point
G1 E.7 F1500 ;  ; unretract
M204 P500 ; adjust acceleration
;TYPE:Support material
G1 F2700
G1 X127.367 Y119.661 E.04176 ; support material
G3 X125.001 Y120.254 I-2.805 J-6.187 E.09321 ; support material
G3 X122.659 Y119.678 I.448 J-6.877 E.09214 ; support material
G1 X121.896 Y118.688 E.0475 ; support material
G2 X128.103 Y118.686 I3.1 J-11.035 E.23889 ; support material
G1 X128.072 Y118.731 E.00208 ; support material
M204 P3000 ; adjust acceleration
G1 X126.713 Y119.674 F21000 ; move to first support material point
M204 P500 ; adjust acceleration
G1 F2700
G1 X126.713 Y119.407 E.01015 ; support material
G1 X126.341 Y119.455 E.01426 ; support material
G2 X126.141 Y119.658 I-.067 J.134 E.01434 ; support material
G1 X125.57 Y119.779 E.02218 ; support material
G1 X125.57 Y119.507 E.01034 ; support material
G1 X124.999 Y119.513 E.0217 ; support material
G1 X124.999 Y119.839 E.01239 ; support material
G1 X124.427 Y119.778 E.02186 ; support material
G1 X124.427 Y119.507 E.0103 ; support material
G1 X123.856 Y119.472 E.02174 ; support material
G1 X123.856 Y119.657 E.00703 ; support material
G1 X123.285 Y119.459 E.02297 ; support material
G1 X123.285 Y119.201 E.00981 ; support material
M204 P3000 ; adjust acceleration
G1 E-.7 ; retract
G1 X126.276 Y100.913 Z.523 F21000 ; move to first support material point
G1 Z.2 F720 ; move to first support material point
G1 E.7 F1500 ;  ; unretract
M204 P500 ; adjust acceleration
G1 F2700
G1 X126.859 Y100.918 E.02216 ; support material
G1 X127.801 Y101.421 E.04059 ; support material
M73 Q5 S9
G1 X128.657 Y101.557 E.03294 ; support material
M73 P5 R8
G1 X129.885 Y102.369 E.05595 ; support material
G1 X128.783 Y101.787 E.04737 ; support material
G2 X124.449 Y101.422 I-3.416 J14.681 E.16588 ; support material
G2 X121.215 Y101.787 I-.335 J11.569 E.1241 ; support material
G1 X119.799 Y102.534 E.06085 ; support material
G1 X119.849 Y102.482 E.00274 ; support material
G2 X120.473 Y102.12 I-.693 J-1.909 E.02756 ; support material
G1 X121.262 Y101.606 E.03579 ; support material
G1 X122.237 Y101.459 E.03747 ; support material
G1 X122.679 Y101.257 E.01847 ; support material
G3 X123.65 Y100.942 I1.135 J1.845 E.03917 ; support material
G3 X125.001 Y100.857 I.801 J1.933 E.05239 ; support material
G3 X126.211 Y100.891 I.551 J1.904 E.04675 ; support material
M204 P3000 ; adjust acceleration
G1 E-.7 ; retract
G1 X125.505 Y110.466 Z.368 F21000 ; move to first perimeter point
G1 Z.2 F720 ; move to first perimeter point
G1 E.7 F1500 ;  ; unretract
M204 P500 ; adjust acceleration
;TYPE:External perimeter
;WIDTH:0.509444
G1 F2700
G3 X124.665 Y110.493 I-.574 J-4.638 E.03265 ; perimeter
;WIDTH:0.505902
G3 X123.934 Y110.272 I.332 J-2.411 E.02952 ; perimeter
G1 X123.646 Y110.067 E.01361 ; perimeter
G1 X123.83 Y110.034 E.0072 ; perimeter
G1 X125.695 Y110.015 E.0718 ; perimeter
;WIDTH:0.485822
G1 X126.376 Y110.059 E.02513 ; perimeter
G1 X126.094 Y110.265 E.01286 ; perimeter
