; generated by PrusaSlicer 2.9.2 on 2025-07-26 at 17:07:27 UTC

; 

; external perimeters extrusion width = 0.45mm
; perimeters extrusion width = 0.45mm
; infill extrusion width = 0.45mm
; solid infill extrusion width = 0.45mm
; top infill extrusion width = 0.42mm
; support material extrusion width = 0.40mm
; first layer extrusion width = 0.50mm

M73 P0 R4
M73 Q0 S4
M201 X10000 Y10000 Z400 E5000 ; sets maximum accelerations, mm/sec^2
M203 X350 Y350 Z12 E100 ; sets maximum feedrates, mm / sec
M204 P7000 R2500 T7000 ; sets acceleration (P, T) and retract acceleration (R), mm/sec^2
M205 X10.00 Y10.00 Z2.00 E10.00 ; sets the jerk limits, mm/sec
M205 S0 T0 ; sets the minimum extruding and travel feed rate, mm/sec

M486 S0
M486 Ahand.obj
M486 S-1

;TYPE:Custom
M17 ; enable steppers
M862.1 P0.4 A0 F1 ; nozzle check
M862.3 P "COREONE" ; printer model check
M862.5 P2 ; g-code level check
M862.6 P"Input shaper" ; FW feature check
M115 U6.3.3+10442

M555 X111.596 Y96.6893 W32 H24.8256

G90 ; use absolute coordinates
M83 ; extruder relative mode


M140 S80 ; set bed temp


M109 R170 ; wait for temp

M84 E ; turn off E motor

G28 ; home all without mesh bed level


M141 S20 ; set nominal chamber temp



G0 Z40 F10000
M104 T0 S170
M190 R80 ; wait for bed temp
M107

G29 G ; absorb heat

M109 R170 ; wait for MBL temp

M302 S155 ; lower cold extrusion limit to 155C


G1 E-2 F2400 ; retraction
M73 P1 R4
M73 Q1 S4


M84 E ; turn off E motor

G29 P9 X208 Y-2.5 W32 H4

;
; MBL
;
M84 E ; turn off E motor
G29 P1 ; invalidate mbl & probe print area
G29 P1 X150 Y0 W100 H20 C ; probe near purge place
G29 P3.2 ; interpolate mbl probes
G29 P3.13 ; extrapolate mbl outside probe area
G29 A ; activate mbl

; prepare for purge
M104 S240
G0 X249 Y-2.5 Z15 F4800 ; move away and ready for the purge
M109 S240

G92 E0
M569 S0 E ; set spreadcycle mode for extruder

;
; Extrude purge line
;
G92 E0 ; reset extruder position
G1 E2 F2400 ; deretraction after the initial one
M73 P2 R4
M73 Q2 S4
G0 E5 X235 Z0.2 F500 ; purge
G0 X225 E4 F500 ; purge
M73 P3 R4
M73 Q3 S4
G0 X215 E4 F650 ; purge
G0 X205 E4 F800 ; purge
M73 P4 R4
G0 X202 Z0.05 F8000 ; wipe, move close to the bed
M73 Q4 S4
G0 X199 Z0.2 F8000 ; wipe, move quickly away from the bed

G92 E0
M221 S100 ; set flow to 100%
G21 ; set units to millimeters
G90 ; use absolute coordinates
M83 ; use relative distances for extrusion
M572 S0.036 ; Filament gcode

M142 S36 ; set heatbreak target temp
M107 ; disable fan
;LAYER_CHANGE
;Z:0.2
;HEIGHT:0.2
G1 E-.7 F2700 ; retract
G1 Z.8 F720 ; lift
G1 X114.696 Y105.004 F21000 ; move to first layer point
G1 Z.2 F720 ; move to first layer point
G1 E.7 F1500 ;  ; unretract
M204 P500 ; adjust acceleration
;TYPE:Skirt/Brim
;WIDTH:0.5
G1 F2700
G3 X115.801 Y103.936 I9.174 J8.399 E.05844 ; brim
G3 X119.994 Y102.153 I5.745 J7.687 E.17484 ; brim
G3 X124.65 Y101.198 I3.933 J7.343 E.18319 ; brim
G3 X128.456 Y102.264 I-2.128 J14.922 E.15065 ; brim
G3 X130.344 Y103.573 I-5.57 J10.044 E.08746 ; brim
G1 X131.67 Y105.076 E.07618 ; brim
G3 X133.18 Y110.411 I-7.819 J5.094 E.21396 ; brim
G3 X128.966 Y118.407 I-10.354 J-.348 E.35547 ; brim
G3 X125.223 Y120.269 I-6.082 J-7.535 E.16015 ; brim
G3 X122.554 Y120.966 I-6.119 J-17.98 E.10493 ; brim
G1 X120.726 Y121.02 E.06951 ; brim
G1 X118.886 Y120.656 E.07129 ; brim
G1 X117.291 Y119.955 E.06622 ; brim
G3 X114.403 Y117.259 I4.977 J-8.228 E.15123 ; brim
G3 X112.822 Y114.891 I6.513 J-6.059 E.10868 ; brim
G3 X112.093 Y112.093 I10.53 J-4.237 E.11019 ; brim
G3 X113.496 Y106.54 I8.808 J-.728 E.22168 ; brim
M73 P5 R4
G3 X114.655 Y105.048 I10.374 J6.863 E.07187 ; brim
M204 P3000 ; adjust acceleration
M204 T7000 ; adjust acceleration
G1 X114.993 Y105.354 F21000 ; move to first brim point
M204 P500 ; adjust acceleration
G1 F2700
G3 X116.068 Y104.308 I8.812 J7.986 E.05704 ; brim
G3 X120.138 Y102.593 I5.475 J7.303 E.16954 ; brim
G3 X124.59 Y101.651 I3.788 J6.914 E.17545 ; brim
G3 X128.24 Y102.667 I-2.026 J14.343 E.14441 ; brim
G3 X130.044 Y103.919 I-5.254 J9.498 E.0836 ; brim
M73 Q5 S4
G1 X131.284 Y105.32 E.07111 ; brim
G3 X132.723 Y110.415 I-7.418 J4.847 E.20434 ; brim
G3 X128.682 Y118.049 I-9.898 J-.353 E.33969 ; brim
G3 X125.104 Y119.827 I-5.782 J-7.146 E.15307 ; brim
G3 X122.48 Y120.514 I-5.999 J-17.56 E.10318 ; brim
G1 X120.74 Y120.562 E.06616 ; brim
G1 X119.002 Y120.213 E.06737 ; brim
G3 X114.757 Y116.97 I2.822 J-8.094 E.20647 ; brim
G3 X113.251 Y114.732 I6.177 J-5.783 E.10296 ; brim
G3 X112.549 Y112.06 I10.057 J-4.07 E.10529 ; brim
G3 X113.889 Y106.774 I8.329 J-.701 E.21112 ; brim
G3 X114.953 Y105.398 I9.916 J6.566 E.06617 ; brim
M204 P3000 ; adjust acceleration
G1 X115.292 Y105.702 F21000 ; move to first brim point
M204 P500 ; adjust acceleration
G1 F2700
G3 X116.336 Y104.679 I8.452 J7.579 E.05559 ; brim
G3 X120.281 Y103.032 I5.209 J6.929 E.16417 ; brim
G3 X124.569 Y102.108 I3.646 J6.509 E.16921 ; brim
G3 X128.023 Y103.07 I-1.995 J13.843 E.13665 ; brim
G3 X129.745 Y104.265 I-4.939 J8.955 E.0798 ; brim
G3 X131.625 Y106.861 I-6.403 J6.616 E.12244 ; brim
G3 X128.972 Y117.22 I-8.524 J3.336 E.43402 ; brim
G3 X124.985 Y119.386 I-6.294 J-6.833 E.17421 ; brim
G3 X122.446 Y120.058 I-5.995 J-17.514 E.0999 ; brim
G1 X120.754 Y120.105 E.06433 ; brim
G3 X117.746 Y119.162 I1.124 J-8.857 E.12044 ; brim
G3 X115.111 Y116.68 I4.512 J-7.432 E.13859 ; brim
G3 X113.68 Y114.572 I5.848 J-5.51 E.09724 ; brim
G3 X113.003 Y112.009 I9.526 J-3.884 E.10103 ; brim
G3 X114.281 Y107.01 I7.86 J-.654 E.19978 ; brim
M73 P6 R4
G3 X115.252 Y105.747 I9.463 J6.271 E.0606 ; brim
M204 P3000 ; adjust acceleration
G1 X115.593 Y106.049 F21000 ; move to first brim point
M204 P500 ; adjust acceleration
G1 F2700
G3 X116.605 Y105.049 I8.093 J7.176 E.05411 ; brim
G3 X120.424 Y103.472 I4.947 J6.567 E.15874 ; brim
G3 X124.509 Y102.562 I3.503 J6.101 E.16151 ; brim
G3 X127.808 Y103.474 I-1.892 J13.26 E.13044 ; brim
G3 X131.809 Y110.421 I-3.424 J6.598 E.32181 ; brim
G3 X128.114 Y117.333 I-8.986 J-.36 E.30822 ; brim
M73 Q6 S4
G3 X124.865 Y118.944 I-5.184 J-6.37 E.13897 ; brim
G3 X122.371 Y119.607 I-5.875 J-17.102 E.09816 ; brim
G1 X120.77 Y119.647 E.06087 ; brim
G3 X115.464 Y116.39 I.837 J-7.314 E.24431 ; brim
G3 X114.108 Y114.411 I5.526 J-5.241 E.09156 ; brim
G3 X113.459 Y111.976 I9.056 J-3.716 E.09604 ; brim
G3 X114.673 Y107.245 I7.381 J-.627 E.18917 ; brim
G3 X115.553 Y106.094 I9.013 J5.98 E.05511 ; brim
M204 P3000 ; adjust acceleration
G1 X115.896 Y106.395 F21000 ; move to first brim point
M204 P500 ; adjust acceleration
G1 F2700
G3 X116.874 Y105.419 I7.738 J6.779 E.05255 ; brim
G3 X120.542 Y103.916 I4.683 J6.201 E.15234 ; brim
G3 X124.488 Y103.019 I3.413 J5.886 E.15616 ; brim
G3 X127.592 Y103.878 I-1.864 J12.771 E.12273 ; brim
G3 X131.351 Y110.423 I-3.201 J6.191 E.30313 ; brim
G3 X127.83 Y116.974 I-8.53 J-.363 E.29246 ; brim
G3 X124.578 Y118.562 I-5.169 J-6.463 E.13867 ; brim
G3 X120.836 Y119.194 I-3.477 J-9.198 E.14514 ; brim
G3 X115.818 Y116.1 I.768 J-6.862 E.23149 ; brim
G3 X114.536 Y114.249 I5.212 J-4.98 E.08593 ; brim
G3 X113.914 Y111.924 I8.524 J-3.527 E.09173 ; brim
G3 X115.064 Y107.482 I6.913 J-.579 E.17774 ; brim
G3 X115.856 Y106.44 I8.57 J5.692 E.04978 ; brim
M204 P3000 ; adjust acceleration
G1 X116.202 Y106.739 F21000 ; move to first brim point
M204 P500 ; adjust acceleration
G1 F2700
G3 X117.172 Y105.766 I7.376 J6.387 E.05226 ; brim
G3 X120.667 Y104.359 I4.395 J5.871 E.14482 ; brim
M73 P7 R4
G3 X123.307 Y103.474 I3.548 J6.2 E.10651 ; brim
G1 X124.429 Y103.472 E.04264 ; brim
G3 X127.378 Y104.282 I-1.761 J12.186 E.11653 ; brim
G3 X130.894 Y110.424 I-2.981 J5.785 E.28439 ; brim
G3 X127.547 Y116.616 I-8.075 J-.365 E.27678 ; brim
G3 X124.439 Y118.127 I-4.897 J-6.12 E.13243 ; brim
G3 X120.852 Y118.736 I-3.33 J-8.736 E.13917 ; brim
G3 X116.171 Y115.809 I.754 J-6.411 E.21681 ; brim
G3 X114.948 Y114.05 I4.864 J-4.687 E.08177 ; brim
M73 Q7 S4
G3 X114.37 Y111.892 I7.964 J-3.29 E.08515 ; brim
G3 X115.438 Y107.746 I6.433 J-.553 E.16586 ; brim
G3 X116.163 Y106.784 I8.14 J5.38 E.04581 ; brim
M204 P3000 ; adjust acceleration
G1 X116.522 Y107.078 F21000 ; move to first brim point
M204 P500 ; adjust acceleration
G1 F2700
G3 X120.792 Y104.802 I4.861 J3.975 E.18879 ; brim
G3 X122.379 Y104.11 I6.428 J12.585 E.06584 ; brim
G3 X124.407 Y103.929 I1.602 J6.492 E.07769 ; brim
G3 X127.164 Y104.687 I-1.736 J11.711 E.10894 ; brim
G3 X130.437 Y110.425 I-2.76 J5.377 E.26561 ; brim
G3 X127.274 Y116.249 I-7.616 J-.365 E.26058 ; brim
G3 X124.299 Y117.692 I-4.647 J-5.794 E.12673 ; brim
G3 X120.869 Y118.279 I-3.182 J-8.276 E.13312 ; brim
G3 X116.524 Y115.519 I.74 J-5.964 E.20217 ; brim
G3 X115.36 Y113.851 I4.531 J-4.405 E.07764 ; brim
G3 X114.794 Y111.19 I6.265 J-2.722 E.10409 ; brim
G3 X116.188 Y107.526 I5.978 J.177 E.1518 ; brim
G3 X116.484 Y107.125 I5.195 J3.527 E.01895 ; brim
M204 P3000 ; adjust acceleration
G1 X116.841 Y107.411 F21000 ; move to first brim point
M204 P500 ; adjust acceleration
G1 F2700
G3 X120.917 Y105.245 I4.56 J3.663 E.18033 ; brim
G3 X122.483 Y104.556 I8.272 J16.672 E.06505 ; brim
G3 X124.349 Y104.383 I1.492 J5.952 E.0715 ; brim
G3 X126.951 Y105.092 I-1.633 J11.121 E.10275 ; brim
G3 X129.98 Y110.424 I-2.542 J4.97 E.24674 ; brim
G3 X126.99 Y115.891 I-7.161 J-.365 E.24499 ; brim
G3 X124.159 Y117.257 I-4.383 J-5.47 E.12049 ; brim
M73 P8 R4
G3 X120.887 Y117.821 I-3.034 J-7.819 E.12703 ; brim
G3 X116.878 Y115.228 I.729 J-5.523 E.18753 ; brim
G3 X115.772 Y113.653 I4.192 J-4.117 E.07348 ; brim
G3 X115.252 Y111.188 I5.785 J-2.509 E.0964 ; brim
G3 X116.552 Y107.803 I5.498 J.17 E.14044 ; brim
G3 X116.803 Y107.458 I4.849 J3.271 E.01622 ; brim
M204 P3000 ; adjust acceleration
G1 X117.151 Y107.75 F21000 ; move to first brim point
M204 P500 ; adjust acceleration
G1 F2700
G3 X118.06 Y106.813 I7.075 J5.948 E.04966 ; brim
G3 X121.041 Y105.689 I3.564 J4.938 E.12251 ; brim
G3 X122.588 Y105.001 I12.133 J25.219 E.06436 ; brim
G3 X125.248 Y105.002 I1.329 J5.157 E.10218 ; brim
G3 X127.367 Y105.874 I-1.603 J6.904 E.08747 ; brim
G3 X129.523 Y110.423 I-2.968 J4.191 E.19995 ; brim
G3 X126.707 Y115.532 I-6.706 J-.365 E.22936 ; brim
G3 X124.018 Y116.822 I-4.125 J-5.151 E.11434 ; brim
M73 Q8 S4
G3 X120.906 Y117.364 I-2.886 J-7.364 E.12087 ; brim
G3 X117.231 Y114.938 I.721 J-5.088 E.17296 ; brim
G3 X116.584 Y108.499 I3.558 J-3.61 E.26677 ; brim
G3 X117.113 Y107.797 I7.642 J5.199 E.03342 ; brim
M204 P3000 ; adjust acceleration
G1 X117.479 Y108.078 F21000 ; move to first brim point
M204 P500 ; adjust acceleration
G1 F2700
G3 X121.164 Y106.132 I3.969 J3.056 E.16335 ; brim
G3 X122.725 Y105.437 I17.346 J36.865 E.06495 ; brim
G1 X123.479 Y105.294 E.02917 ; brim
G3 X125.122 Y105.441 I.303 J5.857 E.0629 ; brim
G3 X127.118 Y106.258 I-1.454 J6.404 E.08234 ; brim
G3 X129.065 Y110.421 I-2.715 J3.807 E.18259 ; brim
G3 X126.424 Y115.173 I-6.251 J-.365 E.21373 ; brim
G3 X123.877 Y116.387 I-3.87 J-4.841 E.10818 ; brim
G3 X120.927 Y116.907 I-2.739 J-6.912 E.11463 ; brim
G3 X117.585 Y114.647 I.714 J-4.659 E.15845 ; brim
G3 X117.277 Y108.359 I3.18 J-3.307 E.26369 ; brim
G3 X117.442 Y108.126 I4.171 J2.775 E.01085 ; brim
M204 P3000 ; adjust acceleration
G1 X117.807 Y108.401 F21000 ; move to first brim point
M204 P500 ; adjust acceleration
G1 F2700
G3 X121.288 Y106.576 I3.671 J2.77 E.15435 ; brim
G1 X121.916 Y106.315 E.02585 ; brim
G3 X124.997 Y105.881 I2.026 J3.237 E.12179 ; brim
G3 X126.844 Y106.624 I-1.334 J5.988 E.076 ; brim
G3 X128.608 Y110.418 I-2.437 J3.44 E.1664 ; brim
G3 X126.142 Y114.813 I-5.797 J-.364 E.19812 ; brim
M73 P9 R4
G3 X123.941 Y115.871 I-3.132 J-3.697 E.09383 ; brim
G3 X120.95 Y116.449 I-2.82 J-6.559 E.11668 ; brim
G3 X117.938 Y114.357 I.71 J-4.235 E.144 ; brim
G3 X117.64 Y108.638 I2.832 J-3.015 E.2404 ; brim
G3 X117.771 Y108.449 I3.838 J2.533 E.00874 ; brim
M204 P3000 ; adjust acceleration
G1 X118.139 Y108.712 F21000 ; move to first brim point
M204 P500 ; adjust acceleration
G1 F2700
G3 X120.581 Y107.145 I3.182 J2.274 E.11298 ; brim
G2 X122.635 Y106.441 I-.367 J-4.417 E.08337 ; brim
G3 X124.159 Y106.202 I1.281 J3.189 E.05913 ; brim
G3 X126.596 Y107.008 I-.655 J6.067 E.09829 ; brim
G3 X128.151 Y110.414 I-2.187 J3.057 E.14896 ; brim
G3 X125.86 Y114.454 I-5.345 J-.362 E.18257 ; brim
G3 X123.81 Y115.431 I-2.844 J-3.326 E.08731 ; brim
G3 X120.975 Y115.992 I-2.687 J-6.13 E.11071 ; brim
G3 X118.785 Y114.731 I.561 J-3.507 E.0982 ; brim
G2 X117.894 Y113.63 I-7.168 J4.884 E.05389 ; brim
G3 X118.001 Y108.918 I2.855 J-2.293 E.19461 ; brim
M73 Q9 S4
G3 X118.104 Y108.761 I3.32 J2.068 E.00714 ; brim
M204 P3000 ; adjust acceleration
G1 X118.478 Y109.02 F21000 ; move to first brim point
M204 P500 ; adjust acceleration
G1 F2700
G3 X120.689 Y107.589 I2.847 J1.976 E.10268 ; brim
G2 X122.809 Y106.864 I-.379 J-4.566 E.08603 ; brim
G3 X124.753 Y106.763 I1.124 J2.872 E.07527 ; brim
G3 X126.321 Y107.374 I-1.083 J5.097 E.06424 ; brim
G3 X127.694 Y110.409 I-1.909 J2.691 E.13271 ; brim
G3 X125.578 Y114.094 I-4.893 J-.36 E.16703 ; brim
G3 X123.68 Y114.991 I-2.561 J-2.962 E.08077 ; brim
G3 X121.002 Y115.535 I-2.556 J-5.711 E.1047 ; brim
G3 X119.121 Y114.421 I.539 J-3.054 E.08491 ; brim
G2 X118.258 Y113.353 I-6.585 J4.436 E.05225 ; brim
G3 X118.362 Y109.199 I2.489 J-2.016 E.17184 ; brim
G3 X118.444 Y109.07 I2.963 J1.797 E.00581 ; brim
M204 P3000 ; adjust acceleration
G1 X118.821 Y109.324 F21000 ; move to first brim point
M204 P500 ; adjust acceleration
G1 F2700
G3 X120.796 Y108.034 I2.511 J1.687 E.0921 ; brim
G2 X122.984 Y107.286 I-.39 J-4.717 E.08878 ; brim
G3 X124.051 Y107.111 I.915 J2.225 E.04145 ; brim
G3 X126.047 Y107.74 I-.553 J5.232 E.08007 ; brim
G3 X127.237 Y110.402 I-1.633 J2.327 E.11637 ; brim
G3 X125.296 Y113.734 I-4.446 J-.358 E.15156 ; brim
G3 X123.572 Y114.541 I-2.22 J-2.498 E.07336 ; brim
G3 X121.078 Y115.084 I-2.49 J-5.435 E.09776 ; brim
G3 X119.459 Y114.114 I.453 J-2.591 E.07337 ; brim
G2 X118.621 Y113.075 I-6.084 J4.052 E.0508 ; brim
G3 X118.725 Y109.477 I2.125 J-1.739 E.14918 ; brim
G3 X118.789 Y109.374 I2.607 J1.534 E.00461 ; brim
M204 P3000 ; adjust acceleration
G1 X119.169 Y109.621 F21000 ; move to first brim point
M204 P500 ; adjust acceleration
G1 F2700
G3 X120.902 Y108.479 I2.17 J1.407 E.08117 ; brim
G2 X123.19 Y107.695 I-.427 J-4.977 E.09284 ; brim
G3 X124.517 Y107.646 I.738 J2.008 E.05132 ; brim
G3 X125.776 Y108.108 I-.92 J4.456 E.05116 ; brim
M73 P10 R4
G3 X126.779 Y110.395 I-1.366 J1.963 E.09986 ; brim
G3 X125.024 Y113.367 I-3.994 J-.356 E.13561 ; brim
G3 X123.458 Y114.093 I-1.929 J-2.108 E.06664 ; brim
G3 X121.153 Y114.632 I-2.437 J-5.222 E.09061 ; brim
G3 X119.8 Y113.808 I.369 J-2.128 E.06165 ; brim
G2 X118.983 Y112.795 I-5.658 J3.726 E.04954 ; brim
G3 X119.087 Y109.756 I1.764 J-1.461 E.12638 ; brim
G3 X119.137 Y109.671 I2.252 J1.272 E.00375 ; brim
M204 P3000 ; adjust acceleration
G1 X119.521 Y109.911 F21000 ; move to first brim point
M204 P500 ; adjust acceleration
G1 F2700
G3 X121.004 Y108.925 I1.827 J1.139 E.06978 ; brim
G2 X123.394 Y108.105 I-.461 J-5.237 E.09698 ; brim
G1 X123.773 Y108.021 E.01475 ; brim
G3 X125.505 Y108.477 I-.128 J4.005 E.06865 ; brim
G3 X126.323 Y110.365 I-1.089 J1.593 E.08248 ; brim
G3 X124.751 Y113 I-3.54 J-.326 E.12058 ; brim
G3 X123.346 Y113.644 I-1.647 J-1.736 E.05981 ; brim
G3 X121.223 Y114.18 I-2.488 J-5.389 E.0837 ; brim
G3 X120.142 Y113.505 I.297 J-1.679 E.04964 ; brim
G2 X119.343 Y112.513 I-5.297 J3.45 E.04849 ; brim
G3 X119.449 Y110.035 I1.407 J-1.181 E.10349 ; brim
G3 X119.49 Y109.962 I1.899 J1.015 E.00318 ; brim
M204 P3000 ; adjust acceleration
G1 X119.878 Y110.194 F21000 ; move to first brim point
M204 P500 ; adjust acceleration
G1 F2700
G3 X121.105 Y109.371 I1.485 J.887 E.05802 ; brim
G2 X123.608 Y108.513 I-.535 J-5.645 E.1015 ; brim
G1 X123.951 Y108.478 E.0131 ; brim
M73 Q10 S4
G3 X125.238 Y108.849 I-.574 J4.416 E.0511 ; brim
G3 X125.863 Y110.021 I-.674 J1.111 E.05298 ; brim
G3 X124.477 Y112.634 I-2.999 J.083 E.11755 ; brim
G3 X123.199 Y113.213 I-1.478 J-1.561 E.05432 ; brim
G3 X121.287 Y113.727 I-2.576 J-5.771 E.07556 ; brim
G3 X120.486 Y113.203 I.238 J-1.239 E.03731 ; brim
G2 X119.702 Y112.23 I-4.997 J3.222 E.04758 ; brim
